Numix/16x16/categories/applications-astronomy.svg

<?xml version="1.0" encoding="UTF-8" standalone="no"?>
<svg
   xmlns:dc="http://purl.org/dc/elements/1.1/"
   xmlns:cc="http://creativecommons.org/ns#"
   xmlns:rdf="http://www.w3.org/1999/02/22-rdf-syntax-ns#"
   xmlns:svg="http://www.w3.org/2000/svg"
   xmlns="http://www.w3.org/2000/svg"
   xmlns:sodipodi="http://sodipodi.sourceforge.net/DTD/sodipodi-0.dtd"
   xmlns:inkscape="http://www.inkscape.org/namespaces/inkscape"
   width="16"
   height="16"
   viewBox="0 0 16 16"
   id="svg2"
   version="1.1"
   inkscape:version="0.91 r"
   sodipodi:docname="applications-astronomy.svg">
  <metadata
     id="metadata24">
    <rdf:RDF>
      <cc:Work
         rdf:about="">
        <dc:format>image/svg+xml</dc:format>
        <dc:type
           rdf:resource="http://purl.org/dc/dcmitype/StillImage" />
      </cc:Work>
    </rdf:RDF>
  </metadata>
  <defs
     id="defs22" />
  <sodipodi:namedview
     pagecolor="#ffffff"
     bordercolor="#666666"
     borderopacity="1"
     objecttolerance="10"
     gridtolerance="10"
     guidetolerance="10"
     inkscape:pageopacity="0"
     inkscape:pageshadow="2"
     inkscape:window-width="930"
     inkscape:window-height="480"
     id="namedview20"
     showgrid="false"
     inkscape:zoom="14.75"
     inkscape:cx="8"
     inkscape:cy="8"
     inkscape:window-x="10"
     inkscape:window-y="34"
     inkscape:window-maximized="0"
     inkscape:current-layer="svg2" />
  <g
     style="fill:#a98bc7"
     id="g4"
     transform="matrix(1,0,0,0.99991165,0.08325509,0.08468388)">
    <path
       d="m 7.734375,1.730469 c -3.660156,0 -6.335937,2.828125 -5.96875,6.292969 0.308594,2.925781 2.683594,5.378906 5.617187,6.078124 C 6.878906,13.28125 6.554688,12.363281 6.453125,11.394531 6.085938,7.925781 8.761719,5.128906 12.425781,5.128906 13,5.128906 13.554688,5.199219 14.101562,5.328125 12.8125,3.210938 10.378906,1.730469 7.734375,1.730469 Z m 0,1.296875 c 1.148437,0 2.253906,0.355468 3.203125,0.941406 C 7.363281,4.660156 4.796875,7.820312 5.171875,11.507812 4.03125,10.566406 3.199219,9.289062 3.046875,7.882812 2.757812,5.144531 4.738281,3.027344 7.734375,3.027344 Z"
       id="path6"
       inkscape:connector-curvature="0" />
    <path
       d="m 4.695312,4.074219 c 0.644532,0 1.167969,0.628906 1.167969,1.40625 l 0,4.976562 c 0,0.773438 -0.523437,1.402344 -1.167969,1.402344 -0.648437,0 -1.171874,-0.628906 -1.171874,-1.402344 l 0,-4.976562 c 0,-0.777344 0.523437,-1.40625 1.171874,-1.40625 z"
       id="path8"
       inkscape:connector-curvature="0" />
    <path
       d="m 3.925781,4.941406 c 0.625,0 1.136719,0.628906 1.136719,1.40625 l 0,2.664063 c 0,0.777343 -0.511719,1.40625 -1.136719,1.40625 -0.628906,0 -1.136719,-0.628907 -1.136719,-1.40625 l 0,-2.664063 c 0,-0.777344 0.507813,-1.40625 1.136719,-1.40625 z"
       id="path10"
       inkscape:connector-curvature="0" />
    <path
       d="m 5.398438,3.433594 c 0.644531,0 1.167968,0.628906 1.167968,1.40625 l 0,1.929687 c 0,0.777344 -0.523437,1.40625 -1.167968,1.40625 -0.644532,0 -1.167969,-0.628906 -1.167969,-1.40625 l 0,-1.929687 c 0,-0.777344 0.523437,-1.40625 1.167969,-1.40625 z"
       id="path12"
       inkscape:connector-curvature="0" />
    <path
       d="m 5.953125,2.3125 1.675781,0 c 0.777344,0 1.40625,0.628906 1.40625,1.40625 l 0,1.035156 c 0,0.773438 -0.628906,1.402344 -1.40625,1.402344 l -1.675781,0 c -0.773437,0 -1.402344,-0.628906 -1.402344,-1.402344 l 0,-1.035156 c 0,-0.777344 0.628907,-1.40625 1.402344,-1.40625 z"
       id="path14"
       inkscape:connector-curvature="0" />
    <path
       d="m 6.617188,4.621094 c 0.449218,0 0.816406,0.609375 0.816406,1.359375 0,0.753906 -0.367188,1.363281 -0.816406,1.363281 -0.453126,0 -0.816407,-0.609375 -0.816407,-1.363281 0,-0.75 0.363281,-1.359375 0.816407,-1.359375 z"
       id="path16"
       inkscape:connector-curvature="0" />
    <path
       d="m 9.316406,2.921875 0.265625,0 c 0.777344,0 1.40625,0.445313 1.40625,0.996094 0,0.546875 -0.628906,0.992187 -1.40625,0.992187 l -0.265625,0 c -0.773437,0 -1.402344,-0.445312 -1.402344,-0.992187 0,-0.550781 0.628907,-0.996094 1.402344,-0.996094 z"
       id="path18"
       inkscape:connector-curvature="0" />
  </g>
</svg>

<svg width="16" xmlns="http://www.w3.org/2000/svg" height="16" viewBox="0 0 16 16" xmlns:xlink="http://www.w3.org/1999/xlink">
<g style="fill:#a98bc7">
<path d="M 7.734375 1.730469 C 4.074219 1.730469 1.398438 4.558594 1.765625 8.023438 C 2.074219 10.949219 4.449219 13.402344 7.382812 14.101562 C 6.878906 13.28125 6.554688 12.363281 6.453125 11.394531 C 6.085938 7.925781 8.761719 5.128906 12.425781 5.128906 C 13 5.128906 13.554688 5.199219 14.101562 5.328125 C 12.8125 3.210938 10.378906 1.730469 7.734375 1.730469 Z M 7.734375 3.027344 C 8.882812 3.027344 9.988281 3.382812 10.9375 3.96875 C 7.363281 4.660156 4.796875 7.820312 5.171875 11.507812 C 4.03125 10.566406 3.199219 9.289062 3.046875 7.882812 C 2.757812 5.144531 4.738281 3.027344 7.734375 3.027344 Z "/>
<path d="M 4.695312 4.074219 C 5.339844 4.074219 5.863281 4.703125 5.863281 5.480469 L 5.863281 10.457031 C 5.863281 11.230469 5.339844 11.859375 4.695312 11.859375 C 4.046875 11.859375 3.523438 11.230469 3.523438 10.457031 L 3.523438 5.480469 C 3.523438 4.703125 4.046875 4.074219 4.695312 4.074219 Z "/>
<path d="M 3.925781 4.941406 C 4.550781 4.941406 5.0625 5.570312 5.0625 6.347656 L 5.0625 9.011719 C 5.0625 9.789062 4.550781 10.417969 3.925781 10.417969 C 3.296875 10.417969 2.789062 9.789062 2.789062 9.011719 L 2.789062 6.347656 C 2.789062 5.570312 3.296875 4.941406 3.925781 4.941406 Z "/>
<path d="M 5.398438 3.433594 C 6.042969 3.433594 6.566406 4.0625 6.566406 4.839844 L 6.566406 6.769531 C 6.566406 7.546875 6.042969 8.175781 5.398438 8.175781 C 4.753906 8.175781 4.230469 7.546875 4.230469 6.769531 L 4.230469 4.839844 C 4.230469 4.0625 4.753906 3.433594 5.398438 3.433594 Z "/>
<path d="M 5.953125 2.3125 L 7.628906 2.3125 C 8.40625 2.3125 9.035156 2.941406 9.035156 3.71875 L 9.035156 4.753906 C 9.035156 5.527344 8.40625 6.15625 7.628906 6.15625 L 5.953125 6.15625 C 5.179688 6.15625 4.550781 5.527344 4.550781 4.753906 L 4.550781 3.71875 C 4.550781 2.941406 5.179688 2.3125 5.953125 2.3125 Z "/>
<path d="M 6.617188 4.621094 C 7.066406 4.621094 7.433594 5.230469 7.433594 5.980469 C 7.433594 6.734375 7.066406 7.34375 6.617188 7.34375 C 6.164062 7.34375 5.800781 6.734375 5.800781 5.980469 C 5.800781 5.230469 6.164062 4.621094 6.617188 4.621094 Z "/>
<path d="M 9.316406 2.921875 L 9.582031 2.921875 C 10.359375 2.921875 10.988281 3.367188 10.988281 3.917969 C 10.988281 4.464844 10.359375 4.910156 9.582031 4.910156 L 9.316406 4.910156 C 8.542969 4.910156 7.914062 4.464844 7.914062 3.917969 C 7.914062 3.367188 8.542969 2.921875 9.316406 2.921875 Z "/>
</g>
</svg>
